!!!COM: Bach, Johann Sebastian
!!!OPR: Joh. Seb. Bachs vierstimmige Choralgesänge
!!!XEN: Four-part Chorales
!!!OTL: Chorale 155. Schaut, ihr Sünder!
!!!SCT: BWV 408
!!!SCA: Thematisch-systematisches Verzeichnis der musikalischen Werke Johann Sebastian Bach: Bach-Werke-Verzeichnis (Schmieder)
!!!YOR: Bach Gesellschaft Edition xxxix
!!!ENC: Steven Rasmussen
!!!CDT: 1685/3//-1750/7/28/
!!!OCY: Deutschland
!!!YEC: Copyright (c) 1994, 2000 Center for Computer Assisted Research in the Humanities
!!!YEM: Rights to all derivative editions reserved
!!!YEN: United States of America
**kern	**kern	**kern	**kern	**silbe
*I:[BASSO]	*I:[TENORE]	*I:[ALTO]	*I:[SOPRANO]	*I:[SOPRANO]
*clefF4	*clefGv2	*clefG2	*clefG2	*
*k[b-]	*k[b-]	*k[b-]	*k[b-]	*
*d:	*d:	*d:	*d:	*
*M4/4	*M4/4	*M4/4	*M4/4	*
=1-	=1-	=1-	=1-	=1-
4.G	4B-	4d	4g	Schaut,
.	4A	4d	4a	ihr
8F#	.	.	.	.
4G	4G	4d	4b-	Sün-
4GG;	4B-;	4d;	4g;	-der!
=2	=2	=2	=2	=2
4r	4r	4r	4r	.
4GG	4B-	4.g	4dd	Ihr
4AA	4c	.	4cc	macht
.	.	8f#	.	.
8BB-L	4d	4g	4b-	mir
8CJ	.	.	.	.
=3	=3	=3	=3	=3
4D	4.d	8gL	4a	gro-
.	.	8f#J	.	.
4E-	.	8gL	4g	-sse
.	8c	8GJ	.	.
2D;	2F#;	2d;	2a;	Pein!
=4	=4	=4	=4	=4
(8D	4d	4f	4b-	Ihr
4BB-)	.	.	.	.
.	4c	4f	4cc	sollt
8AA	.	.	.	.
4BB-	4B-	4f	4dd	Kin-
4B-;	4d;	4f;	4b-;	-der
=5	=5	=5	=5	=5
4r	4r	4r	4r	.
8B-L	4f	4b-	4dd	des
8A-J	.	.	.	.
4G	4e-	8b-L	4ee-	To-
.	.	8aJ	.	.
4F	4f	4b-	4dd	-des
=6	=6	=6	=6	=6
4E-	4g	4b-	4cc	e-
4F	8fL	4a	4cc	-wig
.	8e-J	.	.	.
2BB-;	2d;	2f;	2b-;	sein:
=7	=7	=7	=7	=7
(8BB-	4B-	4.f	4dd	durch
4B-)	.	.	.	.
.	4c	.	4cc	mein
8A	.	8f#	.	.
4G	4d	4g	4b-	Ster-
4GG;	4B-;	4d;	4g;	-ben
=8	=8	=8	=8	=8
4r	4r	4r	4r	.
4E	8cL	4.g	4cc	seid
.	8B-J	.	.	.
4F	4.A	.	4cc	ihr
.	.	16fLL	.	.
.	.	16eJJ	.	.
4D	.	4f	4b-	hier-
.	8G	.	.	.
=9	=9	=9	=9	=9
4C	8AL	4f	4a	-von
.	8B-J	.	.	.
4C	8cL	4e	4g	be-
.	8B-J	.	.	.
2FF;	2A;	2c;	2f;	-freit
=10	=10	=10	=10	=10
4G	4d	4g	4b-	und
8FL	4f	4a	4cc	nun
8E-J	.	.	.	.
8DL	4f	8b-L	4dd	Er-
8BB-J	.	8a-J	.	.
4E-;	4e-;	4g;	4b-;	-ben
=11	=11	=11	=11	=11
4r	4r	4r	4r	.
4BBn	4f	4g	4dd	der
8CL	4e-	4g	4cc	wah-
8DJ	.	.	.	.
4E-	8B-L	4g	8gL	-ren
.	8cJ	.	8aJ	.
=12	=12	=12	=12	=12
4D	4.d	4g	4b-	Se-
4DD	.	4f#	4a	-lig-
.	8c	.	.	.
2GG;	2Bn;	2d;	2g;	-keit.
==|!	==|!	==|!	==|!	==|!
*-	*-	*-	*-	*-
!!!RWG: Key is interpreted using the Humdrum key tool.
!!!URL-pdf: https://s9.imslp.org/files/imglnks/usimg/6/6b/IMSLP24489-PMLP09471-CCARH_Bach_Chorales.pdf#page=108 Musedata edition
!!!URL-pdf: https://s9.imslp.org/files/imglnks/usimg/7/7a/IMSLP04155-Bach_-_BGA_253-438.pdf#page=85 	Bach-Gesellschaft Ausgabe, Band 39 (pp.175-276) Leipzig: Breitkopf und Härtel, 1892. Plate B.W. XXXIX.
!!!END: 1994/07/29
!!!EMD: Converted from MuseData to Humdrum Dec 19, 2000, by Andreas Kornstaedt using muse2kern.
!!!EED: Craig Stuart Sapp
!!!EEV: 2024/03/31
!!!filter-keyboard: satb2gs
!!!title: @{OTL} (@{SCT})
